azure-patterns/svg-gear-turning.svg

<svg xmlns="http://www.w3.org/2000/svg" viewBox="0 0 49 49">
                                
                            
	<path d="M47.6445 24.9446C47.6528 18.4029 44.9548 12.4921 40.6131 8.2666L38.8614 10.0348C38.9444 10.1179 39.0275 10.2009 39.1105 10.2839C41.0115 12.1933 42.4975 14.4098 43.5435 16.8754C44.6228 19.4323 45.1624 22.1386 45.1541 24.9363C45.1458 27.7339 44.5978 30.4402 43.5186 32.9888C42.4726 35.4544 40.9783 37.6627 39.0773 39.5637C37.9898 40.6512 36.7943 41.6059 35.5159 42.4195L33.7476 40.203L33.125 45.6405L38.5626 46.2631L37.0683 44.3787C43.4273 40.2445 47.6362 33.0885 47.6445 24.9446Z" fill="#50E6FF"></path>
	<path d="M29.3892 45.0265C27.7787 45.4166 26.1266 45.6242 24.4414 45.6242H24.4082C21.6106 45.6159 18.8959 45.068 16.3473 43.9805C13.8817 42.9345 11.6735 41.4319 9.77244 39.5308C7.95438 37.7044 6.5099 35.5958 5.4805 33.2548L8.0374 32.8729L3.63754 29.6104L0.375 34.0102L2.9319 33.6283C6.37708 42.1043 14.687 48.0898 24.3999 48.1064C24.4165 48.1064 24.4248 48.1064 24.4414 48.1064C26.4089 48.1064 28.3266 47.8573 30.1529 47.4007L29.3892 45.0265Z" fill="#50E6FF"></path>
	<path d="M36.5368 5.98342L34.3535 0.960938L33.3573 3.47633C30.626 2.33901 27.6291 1.70808 24.4828 1.69978C24.4662 1.69978 24.4579 1.69978 24.4413 1.69978C11.7813 1.69978 1.48733 11.8444 1.24658 24.4545H3.73707C3.79518 21.8063 4.34309 19.2328 5.36419 16.8087C6.41019 14.3432 7.90449 12.1349 9.80556 10.2339C11.7066 8.33278 13.9232 6.84679 16.3887 5.80079C18.9373 4.72157 21.6437 4.17367 24.4413 4.17367H24.4745C27.239 4.18197 29.9204 4.72157 32.4441 5.77588L31.506 8.14184L36.5368 5.98342Z" fill="#50E6FF"></path>
	<path d="M40.9614 26.9868L40.9697 22.1221L37.4498 22.1138C37.1178 20.2044 36.3872 18.4361 35.3329 16.9003L37.7985 14.4431L34.3699 10.9979L31.9209 13.4469C30.3851 12.376 28.6169 11.6288 26.6992 11.2801L26.7075 7.81006L21.8428 7.80176L21.8345 11.305C19.9417 11.662 18.1901 12.4175 16.6709 13.4884L14.1638 10.973L10.7186 14.4016L13.2589 16.9501C12.2378 18.461 11.5155 20.2044 11.1835 22.0723L7.53076 22.064L7.52246 26.9287L11.2333 26.937C11.5903 28.7717 12.3208 30.4818 13.3419 31.9678L10.6854 34.616L14.114 38.0612L16.7788 35.4047C18.2565 36.4258 19.9583 37.148 21.793 37.4967V41.2407L26.6577 41.249L26.666 37.5216C28.5173 37.1978 30.2357 36.4839 31.7383 35.4794L34.3284 38.0861L37.7736 34.6575L35.2084 32.084C36.271 30.5814 37.0264 28.8547 37.3917 26.9785L40.9614 26.9868ZM24.3083 32.9059C19.6096 32.8976 15.8075 29.0788 15.8158 24.3801C15.8241 19.6814 19.6345 15.8792 24.3333 15.8875C29.032 15.8958 32.8341 19.7146 32.8258 24.4133C32.8258 29.112 29.0071 32.9142 24.3083 32.9059Z" fill="#0078D4"></path>
</svg>

<svg xmlns="http://www.w3.org/2000/svg" viewBox="0 0 49 49"><path d="M47.645 24.945a23.162 23.162 0 0 0-7.032-16.678l-1.752 1.768.25.249a20.814 20.814 0 0 1 4.433 6.591 20.433 20.433 0 0 1 1.61 8.061 20.684 20.684 0 0 1-1.635 8.053 20.674 20.674 0 0 1-4.442 6.575 20.915 20.915 0 0 1-3.561 2.855l-1.768-2.216-.623 5.438 5.438.622-1.495-1.884c6.36-4.134 10.568-11.29 10.577-19.434zM29.39 45.026c-1.611.39-3.263.598-4.949.598h-.033a20.583 20.583 0 0 1-8.06-1.644 20.698 20.698 0 0 1-6.576-4.45 20.644 20.644 0 0 1-4.292-6.275l2.557-.382-4.4-3.263-3.262 4.4 2.557-.382C6.377 42.104 14.687 48.09 24.4 48.106h.041c1.968 0 3.886-.249 5.712-.705l-.764-2.375zM36.537 5.983L34.353.961l-.996 2.515A23.191 23.191 0 0 0 24.483 1.7h-.042c-12.66 0-22.954 10.144-23.194 22.755h2.49a20.79 20.79 0 0 1 1.627-7.646 20.674 20.674 0 0 1 4.442-6.575A20.685 20.685 0 0 1 16.389 5.8a20.527 20.527 0 0 1 8.052-1.627h.034a20.73 20.73 0 0 1 7.97 1.602l-.939 2.366 5.03-2.159z" fill="#50E6FF"/><path d="M40.961 26.987l.009-4.865-3.52-.008a13.184 13.184 0 0 0-2.117-5.214l2.465-2.457-3.428-3.445-2.45 2.449a13.249 13.249 0 0 0-5.22-2.167l.008-3.47-4.865-.008-.009 3.503a13.196 13.196 0 0 0-5.163 2.183l-2.507-2.515-3.445 3.429 2.54 2.548a13.32 13.32 0 0 0-2.075 5.122l-3.653-.008-.009 4.865 3.711.008a13.412 13.412 0 0 0 2.109 5.03l-2.657 2.649 3.429 3.445 2.665-2.656a13.122 13.122 0 0 0 5.014 2.092v3.744l4.865.008.008-3.727a13.226 13.226 0 0 0 5.072-2.043l2.59 2.607 3.446-3.428-2.566-2.574a13.189 13.189 0 0 0 2.184-5.106l3.57.009zm-16.653 5.919c-4.698-.008-8.5-3.827-8.492-8.526.008-4.699 3.818-8.5 8.517-8.492 4.699.008 8.501 3.827 8.493 8.525 0 4.699-3.819 8.501-8.518 8.493z" fill="#0078D4"/></svg>
